!!!OTL: Jan Borluut
!!!ARE: Europa, Mitteleuropa, Deutschland
!!!SCT: A0364A
!!!YEM: Copyright 1995, estate of Helmut Schaffrath.
**kern
*ICvox
*Ivox
*M6/4
*k[b-e-]
*g:
{4a
=1
2g
4a
2b-
4fn
=2
2b-
4cc
2dd}
{4dd
=3
2ffn
4dd
2ffn
4gg
=4
2dd
4a
2dd}
{4ee-
=5
2gg
4ee-
2b-
4g
=6
2b-
4cc
2dd}
{4g
=7
2b-
4cc
2dd
4g
=8
2cc
4b-
2a}
==
!!!AGN: Romanze, Ballade, Lied, Personenlied
!! Melodie muendlich durch die Familie Westendorp in Elberfeld,
!!    zuerst mitgetheilt in der Zs. des Bergischen Geschichtsvereins II
!!    (1865) durch Dr. Crecelius.
!!!ONB: ESAC (Essen Associative Code) Database: ALTDEU
!!!AMT: compound duple
!!!AIN: vox
!!!EED: Helmut Schaffrath
!!!EEV: 1.0
*-
